X:220
L:1/8
M:2/2
K:C
 !slide!e2 g2 g4- | g2 !slide![ee]3 e ag | e2 cd ecde |[M:2/4] cA G2 |[M:2/2] AGEC DC A,2 | 
 e2 g2 g4 | g3 (g e2) a2 edcc | edcd cA G2 | AG E2 D2 C2 | (_E2 =E2) C4 | C4- C2 (_E2 | 
 =E2) DE CA,G,A, | G,A,CD EF G2 | A2 c2 d2 c2- | c6 | !slide![AA]3 c A2 | F6 ([GA-]2 | 
 [AA]2) cA d2 c2 | dcde dc A2 | cA G2 AGEF | GA B2 g g3 | g6 b2- | bg a2 g4 |{e} f2 e3 (f e2) | 
 c3 z C4- | C2 (_E2 =E)G E2 | C4 ||

